findly-builder/apps/searchassist/src/assets/images/icons/carrot_up.svg

<svg width="11" height="6" viewBox="0 0 11 6" fill="none" xmlns="http://www.w3.org/2000/svg">
<path fill-rule="evenodd" clip-rule="evenodd" d="M5.79112 5.14949C5.60173 5.33837 5.30157 5.34948 5.09914 5.18282L5.06238 5.14949L0.577685 0.877265C0.376449 0.676579 0.376449 0.351202 0.577685 0.150515C0.767084 -0.0383664 1.06724 -0.0494773 1.26967 0.117183L1.30643 0.150515L5.42675 4.05928L9.54709 0.150515C9.73649 -0.0383664 10.0366 -0.0494773 10.2391 0.117183L10.2758 0.150515C10.4652 0.339397 10.4764 0.638731 10.3093 0.840607L10.2758 0.877265L5.79112 5.14949Z" fill="#202124"/>
</svg>

<svg width="11" height="6" fill="none" xmlns="http://www.w3.org/2000/svg"><path fill-rule="evenodd" clip-rule="evenodd" d="M5.791 5.15c-.19.188-.49.2-.692.033l-.037-.034L.578.877a.513.513 0 0 1 0-.726c.19-.19.49-.2.692-.034l.036.034 4.12 3.908L9.548.151c.19-.19.49-.2.692-.034l.037.034c.19.188.2.488.033.69l-.033.036L5.79 5.15Z" fill="#202124"/></svg>
